X: 35956
T: Sarah Kelly's Delight
R: reel
M: 4/4
K: Gmajor
G2Bd GdBd|G2Bd cAFA|D2FA DAFA|defd cAFA|
G2Bd GdBd|G2Bd cAFA|DEFG ABce|1 dcAF GDEF:|2 dcAF G2FE||
|:DGBd gfag|fd~d2 afdB|DFAB ~c3d|ed~d2 cAFA|
DGBd gfag|fd~d2 afde|=f2af gfdc|1 BGAF G2FE:|2 BGAF GDEF||

